**kern	**kern	**dynam
*part1	*part1	*part1
*staff2	*staff1	*
*I"Piano	*	*
*clefF4	*clefG2	*
*k[f#]	*k[f#]	*
=1	=1	=1
!	!	!LO:DY:a
4.CC#X 4.C#X	16r	>]
!	!LO:TX:b:i:t=cresc.	!
.	8GL 8B-X 8f#	.
.	8G 8B- 8f#	.
.	16GJk 16B- 16e	.
=	=	=
!	!	!LO:DY:a
(4AA 4E-X 4A	16r	<
.	8cnL 8e-X 8f#	.
.	8c 8e- 8f#	.
8GG) 8G	.	[
.	16cJk 16e- 16g	.
=	=	=
!	!	!LO:DY:a
4.FF# 4.C 4.E-X 4.F#	16r	>]
.	8cL 8e-X 8b	.
.	8c 8e- 8b	.
.	16cJk 16e- 16a	.
=	=	=
!	!	!LO:DY:a
!	!	!LO:DY:a
4.GG 4.C 4.En 4.G	16r	rfz > ]]
.	(8cL 8en 8cc	.
.	8c 8e 8cc	.
.	[16cJk [16e [16g	.
=	=	=
4.CC 4.GG 4.E	16cKL] 16e] 16g]	.
.	8G 8c 8g	.
.	8G 8c 8g	.
.	16GJk) 16c 16e	.
=	=	=
!	!	!LO:DY:a
4.C 4.E-X	16r	p
.	(8GL 8c 8g	.
.	8G 8c 8g	.
.	[16GJk [16c [16e-X	.
=	=	=
4CC 4C	16GKL] 16c] 16e-]	.
.	8G 8c 8e-X	.
.	8G 8c 8e-	.
8EE-X 8E-X	.	.
.	16GJk) 16c	.
=	=	=
*-	*-	*-
!!!system-decoration: {(s1,s2)}
